icons/quasar.svg

<svg width="16" height="16" viewBox="0 0 16 16" fill="none" xmlns="http://www.w3.org/2000/svg">
<path d="M9.7413 7.99773C9.7413 8.45955 9.55784 8.90246 9.23128 9.22902C8.90473 9.55557 8.46182 9.73903 8 9.73903C7.53818 9.73903 7.09528 9.55557 6.76872 9.22902C6.44216 8.90246 6.25871 8.45955 6.25871 7.99773C6.25871 7.53591 6.44216 7.09301 6.76872 6.76645C7.09528 6.4399 7.53818 6.25644 8 6.25644C8.46182 6.25644 8.90473 6.4399 9.23128 6.76645C9.55784 7.09301 9.7413 7.53591 9.7413 7.99773V7.99773Z" fill="#B9C0C5"/>
<path d="M13.1828 5.0042C12.9295 4.56686 12.6211 4.16381 12.2653 3.80489L10.9149 4.58397C10.4987 4.22852 10.0214 3.95173 9.50622 3.76712C9.05569 4.21928 8.68669 4.74589 8.41551 5.32371C9.91858 5.2214 11.4704 5.76597 12.9106 6.89131L13.7605 6.40025C13.6281 5.91222 13.434 5.44308 13.1828 5.0042V5.0042Z" fill="#B9C0C5"/>
<path d="M8 13.9817C8.50522 13.9801 9.00887 13.914 9.49678 13.7866V12.2284C10.013 12.0461 10.4915 11.7709 10.9086 11.4163C10.7422 10.7999 10.4707 10.2168 10.1059 9.69284C9.44326 11.0448 8.19674 12.1166 6.50165 12.8013V13.7818C6.99027 13.9134 7.49398 13.9806 8 13.9817V13.9817Z" fill="#B9C0C5"/>
<path d="M2.81715 5.00578C2.56561 5.4441 2.37098 5.91271 2.23796 6.40026L3.58836 7.17934C3.48818 7.71761 3.48711 8.26966 3.58521 8.80832C4.20206 8.97237 4.84258 9.02881 5.47861 8.97515C4.63815 7.72548 4.33439 6.10908 4.58779 4.2991L3.73788 3.80804C3.38118 4.16642 3.07176 4.56893 2.81715 5.00578V5.00578Z" fill="#B9C0C5"/>
<path d="M13.1828 10.9897C13.4347 10.5522 13.6283 10.0832 13.762 9.59525L12.4132 8.81617C12.5139 8.2716 12.5139 7.72074 12.4164 7.18718C11.7995 7.02313 11.159 6.96669 10.523 7.02035C11.3634 8.27003 11.6672 9.88642 11.4138 11.6964L12.2637 12.1875C12.6192 11.8284 12.928 11.426 13.1828 10.9897Z" fill="#00B4FF"/>
<path d="M2.81715 10.9897C3.0705 11.427 3.37888 11.8301 3.73474 12.189L5.08514 11.4099C5.50127 11.7654 5.97858 12.0422 6.49378 12.2268C6.94431 11.7746 7.31331 11.248 7.58449 10.6702C6.08142 10.7725 4.52956 10.2279 3.08944 9.1026L2.23953 9.59366C2.37331 10.0816 2.5669 10.5506 2.81715 10.9897Z" fill="#00B4FF"/>
<path d="M8 2.01221C7.49478 2.01378 6.99113 2.07988 6.50322 2.20737V3.76553C5.98701 3.94782 5.50853 4.22307 5.09144 4.57766C5.25779 5.19406 5.52934 5.7771 5.89413 6.30108C6.55674 4.9491 7.80327 3.87728 9.49835 3.19263V2.21209C9.00942 2.08208 8.50592 2.01491 8 2.01221Z" fill="#00B4FF"/>
</svg>

<svg xmlns="http://www.w3.org/2000/svg" width="16" height="16" fill="none"><path fill="#828A96" d="M9.741 7.998a1.741 1.741 0 1 1-3.482 0 1.741 1.741 0 0 1 3.482 0ZM13.183 5.004a5.913 5.913 0 0 0-.918-1.2l-1.35.78a4.514 4.514 0 0 0-1.409-.817 5.54 5.54 0 0 0-1.09 1.557c1.503-.103 3.054.442 4.495 1.567l.85-.49a5.942 5.942 0 0 0-.578-1.397ZM8 13.982a6.005 6.005 0 0 0 1.497-.195v-1.559a4.486 4.486 0 0 0 1.412-.812 5.546 5.546 0 0 0-.803-1.723c-.663 1.352-1.91 2.424-3.604 3.108v.98a5.81 5.81 0 0 0 1.498.2ZM2.817 5.006A5.946 5.946 0 0 0 2.238 6.4l1.35.78c-.1.538-.1 1.09-.003 1.628.617.164 1.258.22 1.894.167-.84-1.25-1.145-2.866-.891-4.676l-.85-.491c-.357.358-.666.76-.92 1.198Z"/><path fill="#00B4FF" d="M13.183 10.99c.252-.438.445-.907.579-1.395l-1.349-.779a4.5 4.5 0 0 0 .003-1.629 5.551 5.551 0 0 0-1.893-.167c.84 1.25 1.144 2.866.89 4.676l.85.492c.356-.36.665-.762.92-1.198ZM2.817 10.99c.253.437.562.84.918 1.199l1.35-.78c.416.356.894.633 1.409.818.45-.452.82-.979 1.09-1.557-1.503.103-3.054-.442-4.495-1.567l-.85.49c.134.489.328.958.578 1.397ZM8 2.012a6 6 0 0 0-1.497.195v1.559a4.486 4.486 0 0 0-1.412.812c.167.616.438 1.2.803 1.723.663-1.352 1.91-2.424 3.604-3.108v-.98A5.954 5.954 0 0 0 8 2.012Z"/></svg>
